X: 650
T: Hai puojia
L: 1/8
M: 2/4
K: A
B B B e [I:setbarnb 1]| 
d cB2 | 
e G B c | 
G FE2 | 
BB2e | 
G FE2 | 
G F E B, | 
E4 |]

@@@ Tune index: 9524
